!!! Genre: Scheidemann Prelude
!!! Title: 3. Praeambulum in d
!!! Number: 1
!!! Level: 2
**kern	**kern	**kern	**kern
*clefF4	*clefF4	*clefG2	*clefG2
*k[b-]	*k[b-]	*k[b-]	*k[b-]
*met(c)	*met(c)	*met(c)	*met(c)
*d:	*d:	*d:	*d:
=1	=1	=1	=1
1D	1F#	1A	1d[
.	.	.	.
.	.	.	.
.	.	.	.
.	.	.	.
.	.	.	.
.	.	.	.
.	.	.	.
=2	=2	=2	=2
1GG	2G	2.B-	4d]
.	.	.	.
.	.	.	8eL
.	.	.	8f#J
.	2D[	.	4g
.	.	.	.
.	.	4c	4a
.	.	.	.
=3	=3	=3	=3
2.GG	4D]	1d	2.b-
.	.	.	.
.	8EL	.	.
.	8F#J	.	.
.	4G	.	.
.	.	.	.
4FF#	4A	.	4a
.	.	.	.
=4	=4	=4	=4
4GG	1B-	1d	2g
.	.	.	.
4AA	.	.	.
.	.	.	.
4BB-	.	.	2g[
.	.	.	.
4C	.	.	.
.	.	.	.
=5	=5	=5	=5
1D	1A	2d	4g]
.	.	.	.
.	.	.	4g
.	.	.	.
.	.	2d[	4f
.	.	.	.
.	.	.	8gL
.	.	.	8fJ
=6	=6	=6	=6
1AA	2.A	4d]	2e
.	.	.	.
.	.	4d	.
.	.	.	.
.	.	4c#	2a[
.	.	.	.
.	4G	8BL	.
.	.	8c#J	.
=7	=7	=7	=7
2D	2F#	1d	4a]
.	.	.	.
.	.	.	8gL
.	.	.	8aJ
2GG	4G	.	2b[
.	.	.	.
.	4F	.	.
.	.	.	.
=8	=8	=8	=8
2AA	2E	2c	4b]
.	.	.	.
.	.	.	4a
.	.	.	.
2FF	4A	2d	2a[
.	.	.	.
.	4B	.	.
.	.	.	.
=9	=9	=9	=9
1EE	2c	2.e	4a]
.	.	.	.
.	.	.	4a
.	.	.	.
.	2B	.	8g#L
.	.	.	8a
.	.	4d	8f#
.	.	.	8g#J
=10	=10	=10	=10
1AA	1A	1c#	1a
=||	=||	=||	=||
*-	*-	*-	*-
